ZUCCAL
CUT["Fruehlingslied"
    IN DER SCHOENEN FRUEHLINGSZEIT]
REG[Europa, Mitteleuropa, Steiermark]
KEY[Z1261  08  D 3/4]
MEL[-5_.-4  -3-4-5-6-71  -62
    4321  -765_.4  31
    -5_.-4  -3-4-5-6-71  -62
    4321  -765_4-7  1_0_
    -51  -74-5_.-7  13-5_.
    1  -74-5_.-7  13-51-7-6
    -5_--7-2-5-7  3_.
    21-7  -61-4-6--7-2  -1_ //] >>
FCT[Natur und Welt]
